symbols/web/12mp/materialsymbolssharp/12mp_wght200fill1_48px.svg

<svg xmlns="http://www.w3.org/2000/svg" height="48" width="48"><path d="M17.55 22.15h1.5V11.4h-4.6v1.5h3.1Zm7.2 0h7.55V20.6h-6v-3.15h6V11.4h-7.55v1.5h6v3.2h-6ZM8 40V8h32v32Zm4.45-3.4H14v-9.2h3.55v6.15h1.5V27.4h3.7v9.2h1.55V25.85H12.45Zm15.55 0h1.55v-3.05h6v-7.7H28Zm1.55-9.2H34V32h-4.45Z"/></svg>

<svg xmlns="http://www.w3.org/2000/svg" height="48" width="48"><path d="M17.55 22.15H19.05V11.4H14.45V12.9H17.55ZM24.75 22.15H32.3V20.6H26.3V17.45H32.3V11.4H24.75V12.9H30.75V16.1H24.75ZM8 40V8H40V40ZM12.45 36.6H14V27.4H17.55V33.55H19.05V27.4H22.75V36.6H24.3V25.85H12.45ZM28 36.6H29.55V33.55H35.55V25.85H28ZM29.55 27.4H34V32H29.55Z"/></svg>
